Numix-GalliumOS/32/mimetypes/application-drawing-template.svg

<?xml version="1.0" encoding="UTF-8" standalone="no"?>
<svg
   xmlns:dc="http://purl.org/dc/elements/1.1/"
   xmlns:cc="http://creativecommons.org/ns#"
   xmlns:rdf="http://www.w3.org/1999/02/22-rdf-syntax-ns#"
   xmlns:svg="http://www.w3.org/2000/svg"
   xmlns="http://www.w3.org/2000/svg"
   xmlns:sodipodi="http://sodipodi.sourceforge.net/DTD/sodipodi-0.dtd"
   xmlns:inkscape="http://www.inkscape.org/namespaces/inkscape"
   width="32"
   height="32"
   viewBox="0 0 32 32"
   id="svg3023"
   version="1.1"
   inkscape:version="0.48.5 r10040"
   sodipodi:docname="application-drawing-template.svg">
  <metadata
     id="metadata3033">
    <rdf:RDF>
      <cc:Work
         rdf:about="">
        <dc:format>image/svg+xml</dc:format>
        <dc:type
           rdf:resource="http://purl.org/dc/dcmitype/StillImage" />
      </cc:Work>
    </rdf:RDF>
  </metadata>
  <defs
     id="defs3031" />
  <sodipodi:namedview
     pagecolor="#ffffff"
     bordercolor="#666666"
     borderopacity="1"
     objecttolerance="10"
     gridtolerance="10"
     guidetolerance="10"
     inkscape:pageopacity="0"
     inkscape:pageshadow="2"
     inkscape:window-width="1280"
     inkscape:window-height="970"
     id="namedview3029"
     showgrid="true"
     inkscape:zoom="11.313709"
     inkscape:cx="18.287859"
     inkscape:cy="26.692349"
     inkscape:window-x="0"
     inkscape:window-y="0"
     inkscape:window-maximized="1"
     inkscape:current-layer="svg3023">
    <inkscape:grid
       type="xygrid"
       id="grid3053" />
  </sodipodi:namedview>
  <path
     inkscape:connector-curvature="0"
     style="fill:#edaf02;fill-opacity:1"
     d="M 5.34375,0 C 4.6562764,1.5e-5 4,0.689007 4,1.40625 l 0,29.1875 C 4,31.270239 4.6953364,32 5.34375,32 l 21.3125,0 C 27.304664,32 28,31.270239 28,30.59375 L 28,8.9999994 28,1.375 C 28,0.702049 27.297951,0 26.625,0 L 19,0 5.34375,0 z"
     id="path4-1" />
  <path
     style="fill:#ffffff"
     d="m 10,22 0,-12 12,0 0,12 -7,0 0,-6 3,0 0,2 -1,0 0,2 3,0 0,-8 -8,0 0,10 z"
     id="path3027"
     inkscape:connector-curvature="0"
     sodipodi:nodetypes="ccccccccccccccc" />
</svg>

<svg xmlns="http://www.w3.org/2000/svg" viewBox="0 0 32 32">
 <path d="m 5.344 0 c -0.687 0 -1.344 0.689 -1.344 1.406 l 0 29.19 c 0 0.676 0.695 1.406 1.344 1.406 l 21.313 0 c 0.648 0 1.344 -0.73 1.344 -1.406 l 0 -21.594 0 -7.625 c 0 -0.673 -0.702 -1.375 -1.375 -1.375 l -7.625 0 -13.656 0 z" style="fill:#edaf02;fill-opacity:1"/>
 <path d="m 10 22 0 -12 12 0 0 12 -7 0 0 -6 3 0 0 2 -1 0 0 2 3 0 0 -8 -8 0 0 10 z" style="fill:#fff"/>
</svg>
